material/.icons/material/sigma.svg

<?xml version="1.0" encoding="UTF-8"?><!DOCTYPE svg PUBLIC "-//W3C//DTD SVG 1.1//EN" "http://www.w3.org/Graphics/SVG/1.1/DTD/svg11.dtd"><svg xmlns="http://www.w3.org/2000/svg" xmlns:xlink="http://www.w3.org/1999/xlink" version="1.1" id="mdi-sigma" width="24" height="24" viewBox="0 0 24 24"><path d="M18,6H8.83L14.83,12L8.83,18H18V20H6V18L12,12L6,6V4H18V6Z" /></svg>

<svg xmlns="http://www.w3.org/2000/svg" viewBox="0 0 24 24"><path d="M18 6H8.83l6 6-6 6H18v2H6v-2l6-6-6-6V4h12v2z"/></svg>
